X:1
T:Title
%%score { 1 | 2 }
L:1/8
M:4/4
K:Ab
V:1 treble nm="Grand Piano"
V:2 bass 
V:1
 z4 z2[Q:1/4=100] [EA]>[EA] | [Ac]3 [Ac] [Ac]2 [Bd]2 | [Ac]2 [GB]4 [GB]>[Ac] | %3
 [Bd]3 [ce] [df]2 [Ge]2 |[M:3/4] [Ac]6 |[M:1/4] [Ac]>[Bd] |[M:4/4] [ce]3 [df] [ce]2 [Bd]2 | %7
 [Ac]2 [Bd]2 [ce]2 [ce]>[ce] | [Bd]3 [cd] [Ad]2 [Fd]2 |[M:7/8] [Bd]-[Bd]-[Bd]- [Bd]- [Bd]3 | %10
[M:1/8] [Bd] |[M:4/4] [Ac]2 [Ac]>[Ac] [Ac]2 [Bd]2 | [Ac]2 [FA]2 [EA]3 [EA] | %13
 [Ac]2 [GB]>[Ac] [Bd]2 [GB]2 |[M:3/4] [Ac]2 [Ad]2 [Ac]2 |[M:1/4] [EA]>[EA] | %16
[M:4/4] [Ac]2 [Ac]2 [Ac]2 [GB]>[GB] | %17
[M:19/16] [Ac]-<[Ac][Bd]-<[Bd][ce]/-[ce]/-[ce]-<[ce][df]3/2[df] | %18
[M:4/4] [ce] [Ac]3 [Ac]2 [E,G,Bd]2 |[M:3/4] [Ac]6 |] %20
V:2
 z4 z2 [A,,C,]>[A,,C,] | [A,,E,]3 [A,,E,] [A,,E,]2 E,2 | E,2 E,4 E,>E, | E,3 E, E,2 E,2 | %4
[M:3/4] [A,,E,]6 |[M:1/4] [A,,E,]>[A,,E,] |[M:4/4] [A,,A,]3 [A,,A,] [A,,A,]2 [A,,E,]2 | %7
 [A,,E,]2 [A,,E,]2 [A,,A,]2 [A,,A,]>[A,,A,] | [B,,F,]3 [B,,F,] [B,,F,]2 [B,,F,]2 | %9
[M:7/8] [E,G,]-[E,G,]-[E,G,]- [E,G,]- [E,G,]3 |[M:1/8] E, | %11
[M:4/4] [A,,E,]2 [A,,E,]>[A,,E,] [A,,E,]2 E,2 | [A,,E,]2 [A,,D,]2 [A,,C,]3 [A,,C,] | %13
 [E,,E,]2 [E,,E,]>[E,,E,] [E,,E,]2 [E,,E,]2 |[M:3/4] [A,,E,]2 [A,,F,]2 [A,,E,]2 | %15
[M:1/4] [A,,C,]>[A,,C,] |[M:4/4] [A,,E,]2 [A,,E,]2 [A,,E,]2 D,>D, | %17
[M:19/16] [C,E,]-<[C,E,][B,,G,]-<[B,,G,][A,,A,]/-[A,,A,]/-[A,,A,]-<[A,,A,][D,A,]3/2[D,A,] | %18
[M:4/4] [E,A,] E,3 E,2 E,,2 |[M:3/4] [A,,E,A,]6 |] %20

